app/assets/images/icons/active/entertainment.svg

<?xml version="1.0" encoding="UTF-8" standalone="no"?>
<svg width="32px" height="232px" viewBox="0 0 32 232" version="1.1" xmlns="http://www.w3.org/2000/svg" xmlns:xlink="http://www.w3.org/1999/xlink" xmlns:sketch="http://www.bohemiancoding.com/sketch/ns">
    <title>entertainment</title>
    <description>Created with Sketch (http://www.bohemiancoding.com/sketch)</description>
    <defs></defs>
    <g id="Points-of-interest" stroke="none" stroke-width="1" fill="none" fill-rule="evenodd" sketch:type="MSPage">
        <path d="M28.8005454,173.992577 C29.1393636,173.66013 29.0366623,173.331559 28.567308,173.263712 L20.9942897,172.145214 C20.5287746,172.084152 19.9701565,171.676104 19.7609147,171.241887 L16.3804114,164.32639 C16.1721294,163.891203 15.8256327,163.891203 15.615431,164.32639 L12.233968,171.241887 C12.0237663,171.676104 11.4728268,172.084152 11.000593,172.145214 L3.43429345,173.263712 C2.96589891,173.331559 2.85839852,173.66013 3.20009618,173.992577 L8.67589713,179.384435 C9.01279566,179.718822 9.22875626,180.376933 9.15005062,180.84895 L7.85428703,188.456481 C7.77366174,188.929468 8.04721183,189.136885 8.46953478,188.904268 L15.2410993,185.321004 C15.6547838,185.09808 16.3487372,185.09808 16.7595423,185.321004 L23.524388,188.904268 C23.9486306,189.136885 24.2241004,188.929468 24.1453947,188.456481 L22.8534704,180.84895 C22.7690059,180.376933 22.9830468,179.718822 23.3132266,179.384435 L28.8005454,173.992577 L28.8005454,173.992577 L28.8005454,173.992577 L28.8005454,173.992577 Z M21.6181758,176.429236 L19.2128547,178.79514 C19.063122,178.944402 18.9728985,179.236142 19.0122513,179.437743 L19.578548,182.781606 C19.6102222,182.985146 19.4902441,183.073346 19.3049979,182.974484 L16.33338,181.404322 C16.1481338,181.311276 15.8496283,181.311276 15.6643821,181.404322 L12.6946839,182.974484 C12.513277,183.073346 12.3894596,182.985146 12.4230535,182.781606 L12.9951091,179.437743 C13.0248637,179.236142 12.9346401,178.944402 12.7887467,178.79514 L10.3795863,176.429236 C10.2356126,176.285789 10.276885,176.144281 10.4832474,176.105511 L13.8032816,175.627678 C14.0106038,175.593755 14.256319,175.412508 14.3503818,175.221568 L15.8333113,172.183014 C15.9216152,171.999829 16.0751871,171.999829 16.1721294,172.183014 L17.6512196,175.221568 C17.7452824,175.412508 17.9871583,175.593755 18.191601,175.627678 L21.5154746,176.105511 C21.7199173,176.144281 21.7659889,176.285789 21.6181758,176.429236 L21.6181758,176.429236 Z M21.6181758,176.429236" id="entertainment--blue" fill="#2789D5" sketch:type="MSShapeGroup"></path>
        <path d="M28.8005454,133.992577 C29.1393636,133.66013 29.0366623,133.331559 28.567308,133.263712 L20.9942897,132.145214 C20.5287746,132.084152 19.9701565,131.676104 19.7609147,131.241887 L16.3804114,124.32639 C16.1721294,123.891203 15.8256327,123.891203 15.615431,124.32639 L12.233968,131.241887 C12.0237663,131.676104 11.4728268,132.084152 11.000593,132.145214 L3.43429345,133.263712 C2.96589891,133.331559 2.85839852,133.66013 3.20009618,133.992577 L8.67589713,139.384435 C9.01279566,139.718822 9.22875626,140.376933 9.15005062,140.84895 L7.85428703,148.456481 C7.77366174,148.929468 8.04721183,149.136885 8.46953478,148.904268 L15.2410993,145.321004 C15.6547838,145.09808 16.3487372,145.09808 16.7595423,145.321004 L23.524388,148.904268 C23.9486306,149.136885 24.2241004,148.929468 24.1453947,148.456481 L22.8534704,140.84895 C22.7690059,140.376933 22.9830468,139.718822 23.3132266,139.384435 L28.8005454,133.992577 L28.8005454,133.992577 L28.8005454,133.992577 L28.8005454,133.992577 Z M21.6181758,136.429236 L19.2128547,138.79514 C19.063122,138.944402 18.9728985,139.236142 19.0122513,139.437743 L19.578548,142.781606 C19.6102222,142.985146 19.4902441,143.073346 19.3049979,142.974484 L16.33338,141.404322 C16.1481338,141.311276 15.8496283,141.311276 15.6643821,141.404322 L12.6946839,142.974484 C12.513277,143.073346 12.3894596,142.985146 12.4230535,142.781606 L12.9951091,139.437743 C13.0248637,139.236142 12.9346401,138.944402 12.7887467,138.79514 L10.3795863,136.429236 C10.2356126,136.285789 10.276885,136.144281 10.4832474,136.105511 L13.8032816,135.627678 C14.0106038,135.593755 14.256319,135.412508 14.3503818,135.221568 L15.8333113,132.183014 C15.9216152,131.999829 16.0751871,131.999829 16.1721294,132.183014 L17.6512196,135.221568 C17.7452824,135.412508 17.9871583,135.593755 18.191601,135.627678 L21.5154746,136.105511 C21.7199173,136.144281 21.7659889,136.285789 21.6181758,136.429236 L21.6181758,136.429236 Z M21.6181758,136.429236" id="entertainment--lp-blue" fill="#206FAC" sketch:type="MSShapeGroup"></path>
        <path d="M28.8005454,93.9925774 C29.1393636,93.6601295 29.0366623,93.3315586 28.567308,93.2637121 L20.9942897,92.1452142 C20.5287746,92.0841523 19.9701565,91.6761041 19.7609147,91.2418866 L16.3804114,84.3263901 C16.1721294,83.8912033 15.8256327,83.8912033 15.615431,84.3263901 L12.233968,91.2418866 C12.0237663,91.6761041 11.4728268,92.0841523 11.000593,92.1452142 L3.43429345,93.2637121 C2.96589891,93.3315586 2.85839852,93.6601295 3.20009618,93.9925774 L8.67589713,99.3844354 C9.01279566,99.7188217 9.22875626,100.376933 9.15005062,100.84895 L7.85428703,108.456481 C7.77366174,108.929468 8.04721183,109.136885 8.46953478,108.904268 L15.2410993,105.321004 C15.6547838,105.09808 16.3487372,105.09808 16.7595423,105.321004 L23.524388,108.904268 C23.9486306,109.136885 24.2241004,108.929468 24.1453947,108.456481 L22.8534704,100.84895 C22.7690059,100.376933 22.9830468,99.7188217 23.3132266,99.3844354 L28.8005454,93.9925774 L28.8005454,93.9925774 L28.8005454,93.9925774 L28.8005454,93.9925774 Z M21.6181758,96.4292358 L19.2128547,98.7951401 C19.063122,98.9444024 18.9728985,99.2361423 19.0122513,99.4377433 L19.578548,102.781606 C19.6102222,102.985146 19.4902441,103.073346 19.3049979,102.974484 L16.33338,101.404322 C16.1481338,101.311276 15.8496283,101.311276 15.6643821,101.404322 L12.6946839,102.974484 C12.513277,103.073346 12.3894596,102.985146 12.4230535,102.781606 L12.9951091,99.4377433 C13.0248637,99.2361423 12.9346401,98.9444024 12.7887467,98.7951401 L10.3795863,96.4292358 C10.2356126,96.2857889 10.276885,96.1442805 10.4832474,96.1055111 L13.8032816,95.6276779 C14.0106038,95.5937547 14.256319,95.4125076 14.3503818,95.2215682 L15.8333113,92.1830144 C15.9216152,91.9998288 16.0751871,91.9998288 16.1721294,92.1830144 L17.6512196,95.2215682 C17.7452824,95.4125076 17.9871583,95.5937547 18.191601,95.6276779 L21.5154746,96.1055111 C21.7199173,96.1442805 21.7659889,96.2857889 21.6181758,96.4292358 L21.6181758,96.4292358 Z M21.6181758,96.4292358" id="entertainment--white" fill="#FFFFFF" sketch:type="MSShapeGroup"></path>
        <path d="M28.8005454,53.9925774 C29.1393636,53.6601295 29.0366623,53.3315586 28.567308,53.2637121 L20.9942897,52.1452142 C20.5287746,52.0841523 19.9701565,51.6761041 19.7609147,51.2418866 L16.3804114,44.3263901 C16.1721294,43.8912033 15.8256327,43.8912033 15.615431,44.3263901 L12.233968,51.2418866 C12.0237663,51.6761041 11.4728268,52.0841523 11.000593,52.1452142 L3.43429345,53.2637121 C2.96589891,53.3315586 2.85839852,53.6601295 3.20009618,53.9925774 L8.67589713,59.3844354 C9.01279566,59.7188217 9.22875626,60.3769327 9.15005062,60.8489504 L7.85428703,68.4564811 C7.77366174,68.9294681 8.04721183,69.1368846 8.46953478,68.904268 L15.2410993,65.3210038 C15.6547838,65.0980796 16.3487372,65.0980796 16.7595423,65.3210038 L23.524388,68.904268 C23.9486306,69.1368846 24.2241004,68.9294681 24.1453947,68.4564811 L22.8534704,60.8489504 C22.7690059,60.3769327 22.9830468,59.7188217 23.3132266,59.3844354 L28.8005454,53.9925774 L28.8005454,53.9925774 L28.8005454,53.9925774 L28.8005454,53.9925774 Z M21.6181758,56.4292358 L19.2128547,58.7951401 C19.063122,58.9444024 18.9728985,59.2361423 19.0122513,59.4377433 L19.578548,62.7816063 C19.6102222,62.9851458 19.4902441,63.0733463 19.3049979,62.9744842 L16.33338,61.4043225 C16.1481338,61.3112758 15.8496283,61.3112758 15.6643821,61.4043225 L12.6946839,62.9744842 C12.513277,63.0733463 12.3894596,62.9851458 12.4230535,62.7816063 L12.9951091,59.4377433 C13.0248637,59.2361423 12.9346401,58.9444024 12.7887467,58.7951401 L10.3795863,56.4292358 C10.2356126,56.2857889 10.276885,56.1442805 10.4832474,56.1055111 L13.8032816,55.6276779 C14.0106038,55.5937547 14.256319,55.4125076 14.3503818,55.2215682 L15.8333113,52.1830144 C15.9216152,51.9998288 16.0751871,51.9998288 16.1721294,52.1830144 L17.6512196,55.2215682 C17.7452824,55.4125076 17.9871583,55.5937547 18.191601,55.6276779 L21.5154746,56.1055111 C21.7199173,56.1442805 21.7659889,56.2857889 21.6181758,56.4292358 L21.6181758,56.4292358 Z M21.6181758,56.4292358" id="entertainment--body-grey" fill="#67747C" sketch:type="MSShapeGroup"></path>
        <path d="M28.8005454,13.9925774 C29.1393636,13.6601295 29.0366623,13.3315586 28.567308,13.2637121 L20.9942897,12.1452142 C20.5287746,12.0841523 19.9701565,11.6761041 19.7609147,11.2418866 L16.3804114,4.32639011 C16.1721294,3.8912033 15.8256327,3.8912033 15.615431,4.32639011 L12.233968,11.2418866 C12.0237663,11.6761041 11.4728268,12.0841523 11.000593,12.1452142 L3.43429345,13.2637121 C2.96589891,13.3315586 2.85839852,13.6601295 3.20009618,13.9925774 L8.67589713,19.3844354 C9.01279566,19.7188217 9.22875626,20.3769327 9.15005062,20.8489504 L7.85428703,28.4564811 C7.77366174,28.9294681 8.04721183,29.1368846 8.46953478,28.904268 L15.2410993,25.3210038 C15.6547838,25.0980796 16.3487372,25.0980796 16.7595423,25.3210038 L23.524388,28.904268 C23.9486306,29.1368846 24.2241004,28.9294681 24.1453947,28.4564811 L22.8534704,20.8489504 C22.7690059,20.3769327 22.9830468,19.7188217 23.3132266,19.3844354 L28.8005454,13.9925774 L28.8005454,13.9925774 L28.8005454,13.9925774 L28.8005454,13.9925774 Z M21.6181758,16.4292358 L19.2128547,18.7951401 C19.063122,18.9444024 18.9728985,19.2361423 19.0122513,19.4377433 L19.578548,22.7816063 C19.6102222,22.9851458 19.4902441,23.0733463 19.3049979,22.9744842 L16.33338,21.4043225 C16.1481338,21.3112758 15.8496283,21.3112758 15.6643821,21.4043225 L12.6946839,22.9744842 C12.513277,23.0733463 12.3894596,22.9851458 12.4230535,22.7816063 L12.9951091,19.4377433 C13.0248637,19.2361423 12.9346401,18.9444024 12.7887467,18.7951401 L10.3795863,16.4292358 C10.2356126,16.2857889 10.276885,16.1442805 10.4832474,16.1055111 L13.8032816,15.6276779 C14.0106038,15.5937547 14.256319,15.4125076 14.3503818,15.2215682 L15.8333113,12.1830144 C15.9216152,11.9998288 16.0751871,11.9998288 16.1721294,12.1830144 L17.6512196,15.2215682 C17.7452824,15.4125076 17.9871583,15.5937547 18.191601,15.6276779 L21.5154746,16.1055111 C21.7199173,16.1442805 21.7659889,16.2857889 21.6181758,16.4292358 L21.6181758,16.4292358 Z M21.6181758,16.4292358" id="entertainment--title-grey" fill="#3B444F" sketch:type="MSShapeGroup"></path>
    </g>
</svg>

<svg width="32" height="232" viewBox="0 0 32 232" xmlns="http://www.w3.org/2000/svg" xmlns:sketch="http://www.bohemiancoding.com/sketch/ns"><title>entertainment</title><g sketch:type="MSPage" fill="none"><path d="M28.801 173.993c.339-.332.236-.661-.233-.729l-7.573-1.118c-.466-.061-1.024-.469-1.233-.903l-3.381-6.915c-.208-.435-.555-.435-.765 0l-3.381 6.915c-.21.434-.761.842-1.233.903l-7.566 1.118c-.468.068-.576.396-.234.729l5.476 5.392c.337.334.553.992.474 1.465l-1.296 7.608c-.081.473.193.68.615.448l6.772-3.583c.414-.223 1.108-.223 1.518 0l6.765 3.583c.424.233.7.025.621-.448l-1.292-7.608c-.084-.472.13-1.13.46-1.465l5.487-5.392zm-7.182 2.437l-2.405 2.366c-.15.149-.24.441-.201.643l.566 3.344c.032.204-.088.292-.274.193l-2.972-1.57c-.185-.093-.484-.093-.669 0l-2.97 1.57c-.181.099-.305.011-.272-.193l.572-3.344c.03-.202-.06-.493-.206-.643l-2.409-2.366c-.144-.143-.103-.285.104-.324l3.32-.478c.207-.034.453-.215.547-.406l1.483-3.039c.088-.183.242-.183.339 0l1.479 3.039c.094.191.336.372.54.406l3.324.478c.204.039.251.18.103.324zm0 0" fill="#2789D5" sketch:type="MSShapeGroup"/><path d="M28.801 133.993c.339-.332.236-.661-.233-.729l-7.573-1.118c-.466-.061-1.024-.469-1.233-.903l-3.381-6.915c-.208-.435-.555-.435-.765 0l-3.381 6.915c-.21.434-.761.842-1.233.903l-7.566 1.118c-.468.068-.576.396-.234.729l5.476 5.392c.337.334.553.992.474 1.465l-1.296 7.608c-.081.473.193.68.615.448l6.772-3.583c.414-.223 1.108-.223 1.518 0l6.765 3.583c.424.233.7.025.621-.448l-1.292-7.608c-.084-.472.13-1.13.46-1.465l5.487-5.392zm-7.182 2.437l-2.405 2.366c-.15.149-.24.441-.201.643l.566 3.344c.032.204-.088.292-.274.193l-2.972-1.57c-.185-.093-.484-.093-.669 0l-2.97 1.57c-.181.099-.305.011-.272-.193l.572-3.344c.03-.202-.06-.493-.206-.643l-2.409-2.366c-.144-.143-.103-.285.104-.324l3.32-.478c.207-.034.453-.215.547-.406l1.483-3.039c.088-.183.242-.183.339 0l1.479 3.039c.094.191.336.372.54.406l3.324.478c.204.039.251.18.103.324zm0 0" fill="#206FAC" sketch:type="MSShapeGroup"/><path d="M28.801 93.993c.339-.332.236-.661-.233-.729l-7.573-1.118c-.466-.061-1.024-.469-1.233-.903l-3.381-6.915c-.208-.435-.555-.435-.765 0l-3.381 6.915c-.21.434-.761.842-1.233.903l-7.566 1.118c-.468.068-.576.396-.234.729l5.476 5.392c.337.334.553.992.474 1.465l-1.296 7.608c-.081.473.193.68.615.448l6.772-3.583c.414-.223 1.108-.223 1.518 0l6.765 3.583c.424.233.7.025.621-.448l-1.292-7.608c-.084-.472.13-1.13.46-1.465l5.487-5.392zm-7.182 2.437l-2.405 2.366c-.15.149-.24.441-.201.643l.566 3.344c.032.204-.088.292-.274.193l-2.972-1.57c-.185-.093-.484-.093-.669 0l-2.97 1.57c-.181.099-.305.011-.272-.193l.572-3.344c.03-.202-.06-.493-.206-.643l-2.409-2.366c-.144-.143-.103-.285.104-.324l3.32-.478c.207-.034.453-.215.547-.406l1.483-3.039c.088-.183.242-.183.339 0l1.479 3.039c.094.191.336.372.54.406l3.324.478c.204.039.251.18.103.324zm0 0" fill="#fff" sketch:type="MSShapeGroup"/><path d="M28.801 53.993c.339-.332.236-.661-.233-.729l-7.573-1.118c-.466-.061-1.024-.469-1.233-.903l-3.381-6.915c-.208-.435-.555-.435-.765 0l-3.381 6.915c-.21.434-.761.842-1.233.903l-7.566 1.118c-.468.068-.576.396-.234.729l5.476 5.392c.337.334.553.992.474 1.465l-1.296 7.608c-.081.473.193.68.615.448l6.772-3.583c.414-.223 1.108-.223 1.518 0l6.765 3.583c.424.233.7.025.621-.448l-1.292-7.608c-.084-.472.13-1.13.46-1.465l5.487-5.392zm-7.182 2.437l-2.405 2.366c-.15.149-.24.441-.201.643l.566 3.344c.032.204-.088.292-.274.193l-2.972-1.57c-.185-.093-.484-.093-.669 0l-2.97 1.57c-.181.099-.305.011-.272-.193l.572-3.344c.03-.202-.06-.493-.206-.643l-2.409-2.366c-.144-.143-.103-.285.104-.324l3.32-.478c.207-.034.453-.215.547-.406l1.483-3.039c.088-.183.242-.183.339 0l1.479 3.039c.094.191.336.372.54.406l3.324.478c.204.039.251.18.103.324zm0 0" fill="#67747C" sketch:type="MSShapeGroup"/><path d="M28.801 13.993c.339-.332.236-.661-.233-.729l-7.573-1.118c-.466-.061-1.024-.469-1.233-.903l-3.381-6.915c-.208-.435-.555-.435-.765 0l-3.381 6.915c-.21.434-.761.842-1.233.903l-7.566 1.118c-.468.068-.576.396-.234.729l5.476 5.392c.337.334.553.992.474 1.465l-1.296 7.608c-.081.473.193.68.615.448l6.772-3.583c.414-.223 1.108-.223 1.518 0l6.765 3.583c.424.233.7.025.621-.448l-1.292-7.608c-.084-.472.13-1.13.46-1.465l5.487-5.392zm-7.182 2.437l-2.405 2.366c-.15.149-.24.441-.201.643l.566 3.344c.032.204-.088.292-.274.193l-2.972-1.57c-.185-.093-.484-.093-.669 0l-2.97 1.57c-.181.099-.305.011-.272-.193l.572-3.344c.03-.202-.06-.493-.206-.643l-2.409-2.366c-.144-.143-.103-.285.104-.324l3.32-.478c.207-.034.453-.215.547-.406l1.483-3.039c.088-.183.242-.183.339 0l1.479 3.039c.094.191.336.372.54.406l3.324.478c.204.039.251.18.103.324zm0 0" fill="#3B444F" sketch:type="MSShapeGroup"/></g></svg>
